storage/app/icons/phosphoricons/thin/car-battery-thin.svg

<svg xmlns="http://www.w3.org/2000/svg" fill="currentColor" viewBox="0 0 256 256"><path d="M188 136a4 4 0 0 1-4 4h-12v12a4 4 0 0 1-8 0v-12h-12a4 4 0 0 1 0-8h12v-12a4 4 0 0 1 8 0v12h12a4 4 0 0 1 4 4m-84-4H72a4 4 0 0 0 0 8h32a4 4 0 0 0 0-8m132-44v96a12 12 0 0 1-12 12H32a12 12 0 0 1-12-12V88a12 12 0 0 1 12-12h20V56a12 12 0 0 1 12-12h32a12 12 0 0 1 12 12v20h40V56a12 12 0 0 1 12-12h32a12 12 0 0 1 12 12v20h20a12 12 0 0 1 12 12m-80-12h40V56a4 4 0 0 0-4-4h-32a4 4 0 0 0-4 4Zm-96 0h40V56a4 4 0 0 0-4-4H64a4 4 0 0 0-4 4Zm168 12a4 4 0 0 0-4-4H32a4 4 0 0 0-4 4v96a4 4 0 0 0 4 4h192a4 4 0 0 0 4-4Z"/></svg>

<svg xmlns="http://www.w3.org/2000/svg" viewBox="0 0 256 256" fill="currentColor"><path d="M188,136a4,4,0,0,1-4,4H172v12a4,4,0,0,1-8,0V140H152a4,4,0,0,1,0-8h12V120a4,4,0,0,1,8,0v12h12A4,4,0,0,1,188,136Zm-84-4H72a4,4,0,0,0,0,8h32a4,4,0,0,0,0-8ZM236,88v96a12,12,0,0,1-12,12H32a12,12,0,0,1-12-12V88A12,12,0,0,1,32,76H52V56A12,12,0,0,1,64,44H96a12,12,0,0,1,12,12V76h40V56a12,12,0,0,1,12-12h32a12,12,0,0,1,12,12V76h20A12,12,0,0,1,236,88ZM156,76h40V56a4,4,0,0,0-4-4H160a4,4,0,0,0-4,4ZM60,76h40V56a4,4,0,0,0-4-4H64a4,4,0,0,0-4,4ZM228,88a4,4,0,0,0-4-4H32a4,4,0,0,0-4,4v96a4,4,0,0,0,4,4H224a4,4,0,0,0,4-4Z"/></svg>
